img/chelyabinsk/phone.svg

<svg width="32" height="32" viewBox="0 0 32 32" fill="none" xmlns="http://www.w3.org/2000/svg">
<path d="M32 16C32 13.8989 31.5861 11.8184 30.7821 9.87696C29.9779 7.93594 28.7995 6.17187 27.3138 4.68634C25.828 3.20038 24.0642 2.02187 22.1229 1.21797C20.1818 0.413664 18.1011 0 16 0V3.2C17.681 3.2 19.3454 3.53125 20.8984 4.17422C22.4514 4.81758 23.8624 5.76054 25.051 6.94922C26.2395 8.1375 27.1824 9.54883 27.8256 11.1016C28.469 12.6547 28.8 14.3192 28.8 16H32Z" fill="white"/>
<path d="M0 12.8V4.8C0 3.9164 0.716352 3.2 1.6 3.2H9.6C10.4836 3.2 11.2 3.9164 11.2 4.8V11.2C11.2 12.0836 10.4836 12.8 9.6 12.8H6.4C6.4 19.8691 12.1308 25.6 19.2 25.6V22.4C19.2 21.5165 19.9163 20.8 20.8 20.8H27.2C28.0837 20.8 28.8 21.5165 28.8 22.4V30.4C28.8 31.2835 28.0837 32 27.2 32H19.2C8.59614 32 0 23.4038 0 12.8Z" fill="white"/>
<path d="M24.8693 12.3262C25.3517 13.491 25.6 14.7395 25.6 16H22.72C22.72 15.1176 22.5462 14.2437 22.2085 13.4285C21.8707 12.6129 21.3758 11.8723 20.7517 11.2484C20.1277 10.6242 19.387 10.1293 18.5717 9.79141C17.7563 9.4539 16.8824 9.28008 16 9.28008V6.4C17.2606 6.4 18.509 6.64843 19.6738 7.13086C20.8384 7.61328 21.8968 8.32032 22.7882 9.21171C23.6797 10.1031 24.3869 11.1613 24.8693 12.3262Z" fill="white"/>
</svg>

<svg width="32" height="32" fill="none" xmlns="http://www.w3.org/2000/svg"><path d="M32 16a16.003 16.003 0 0 0-9.877-14.782A15.995 15.995 0 0 0 16 0v3.2a12.805 12.805 0 0 1 9.051 3.75A12.798 12.798 0 0 1 28.8 16H32ZM0 12.8v-8a1.6 1.6 0 0 1 1.6-1.6h8a1.6 1.6 0 0 1 1.6 1.6v6.4a1.6 1.6 0 0 1-1.6 1.6H6.4c0 7.07 5.73 12.8 12.8 12.8v-3.2a1.6 1.6 0 0 1 1.6-1.6h6.4a1.6 1.6 0 0 1 1.6 1.6v8a1.6 1.6 0 0 1-1.6 1.6h-8C8.596 32 0 23.404 0 12.8Z" fill="#fff"/><path d="M24.87 12.326A9.602 9.602 0 0 1 25.6 16h-2.88A6.72 6.72 0 0 0 16 9.28V6.4a9.601 9.601 0 0 1 8.87 5.926Z" fill="#fff"/></svg>
